X: 139
T: Shao shu
%%abc-version 2.0
%%abcx-abcm2ps-target-version 5.9.1 (29 Sep 2008)
%%abc-creator hum2abc beta
%%abcx-conversion-date 2013/10/02 07:52:29
%%abc-edited-by Helmut Schaffrath
%%humdrum-veritas 144213789
%%humdrum-veritas-data 2747809723
%%continueall 1
%%barnumbers 0
L: 1/16
M: 3/4
K: G
A2 A d B A E G [I:setbarnb 1]| 
A4d c d ed4 | 
[M:2/4]A2 A B G E A B | 
G2 G E A G A B | 
E4G2 z2 | 
d2 d d c2 c A | 
d2 d2F4 | 
[M:3/4]A2 A B A G A B G2 G G | 
[M:2/4]A d F2 G2 z2 | 
G2> A2c4 | 
G z c2 A c A G | 
E G E G E D C A, | 
D2 D E G E G A | 
D2> C2D4 |]  



